X: 152
T: Lechu Neranena
O: Israel
C: Boaz Sharabi 1983
M: 4/4
L: 1/8
K: Dm
%%MIDI program 71
%%MIDI gchord cccccccc
%%MIDI chordprog 24
%%MIDI chordvol 40
F              |"Dm"AAAA Az2A    |\
AGFG Az2A      |"Gm"BABA BABc    |\
"Dm"A4 z3F     |
"Dm"AAAA Az2A    | AGFG Az2A      |\
"Am"cBcB ABAB    | "Dm"A4 z3A     |
"Gm"GFEF GE/F/GG | "Dm"FEDE F2z2  |\
"Edim"FE z2 EE z2| "Dm"DE FG A2 z2|
"Gm"GFEF G2 z2   | "Dm"FEDE F2z2  |\
"Edim"ED^CD E2 F2| "Dm"D4 z4      |
%%MIDI gchordoff
GBcd e2 e2     | e2 cB AB c2    |\
AB2A BAB2        | c2 A6          |\
GBAB cd3         | e2 fc AB c2    |\
ABAB AB2A        | E2 D6          |


